img/4-5angolanos.svg

<svg fill="none" height="73" viewBox="0 0 69 73" width="69" xmlns="http://www.w3.org/2000/svg"><g fill="#fff"><path d="m52.3996 72.8197c-.3672-.0043-.722-.1329-1.0066-.3649l-.6795-.0629h-.1762l-1.057-.2265-1.3841-.1258h-.1384l-3.0073-.5537-2.3153-.0881-1.7616.2517c-.0919.0129-.185.0129-.2769 0h-.7172c-.1378.0004-.2744-.0252-.4026-.0755l-1.7239-.5788c-.3043-.0994-.5717-.2879-.7676-.5411l-.4781-.604-.8179-.5662h-21.4415l-.6165.1258c-.2345.0475-.4767.0404-.708-.0207s-.4454-.1746-.6258-.3316l-.9689-.8808-.9438-.3397c-.3333-.1167-.61719-.3429-.80527-.6418l-.151-.1258-1.87487.0377-.33974.1259-.75498.692c-.10886.0944-.23203.1708-.36491.2265l-.56623.2643c-.22841.1002-.47711.1456-.72619.1325-.24909-.0131-.49165-.0844-.70827-.208l-.18875.1384c-.0849.0661-.17793.1211-.27683.1636l-1.1073.541c-.24102.1134-.50655.1647-.77246.1493-.2659-.0153-.52375-.0969-.750084-.2373-.226803-.1411-.413967-.3375-.543852-.5708-.129885-.2334-.198213-.496-.198546-.763v-.4027l-.25165988-1.7365c-.00527749-.0712-.00527749-.1427 0-.2139v-1.0066c.00048371-.408.15822088-.8001.44040488-1.0947v-1.3464s0-.1258 0-.2013l.138413-1.0318c.042667-.3362.192718-.6495.427824-.8934l.45299-.4656.50332-1.7491c.0281-.0859.06173-.17.10066-.2516l.28941-.5914.16358-.906c-.01179-.1213-.01179-.2435 0-.3649l.22649-.6291.13842-.906c.02015-.1209.05392-.2391.10066-.3523l.17616-.4279.151-.7801c.02441-.1254.06238-.2478.11325-.3649l.57881-1.2583v-.3398c-.00342-.3783.13073-.745.37749-1.0318v-.1132c.01668-.165.05914-.3264.12584-.4782l.57881-1.2583c.11379-.2584.29666-.4805.52849-.6417l.8179-.604.08808-.6543c.03292-.2759.13893-.538.30705-.7592s.39226-.3935.64925-.4991l1.58546-.6543 1.00668-.8934.302-.4782.3019-.6795.214-1.0569v-1.2583c-.0087-.1348-.0002-.2701.0251-.4027l.1384-.4907-.0755-1.0192c-.0211-.3569.0763-.7108.2769-1.0067l-.1007-.4152-.755-.5788c-.2137-.1623-.3791-.3798-.47813-.6292l-.33974-.8934-.36491-.4404c-.10696-.1256-.1882-.2709-.23908-.4278l-.52848-1.3338s0-.1258 0-.1888l-.72982-2.6424c-.01911-.1293-.01911-.2607 0-.3901v-.541c.00179-.3401.11199-.6707.31458-.9438l.4404-.5914c.06183-.0952.13826-.1801.2265-.2516l.11324-.1259v-.5284l-.21391-.6921-.4404-.5788c-.10417-.1414-.18489-.2986-.23908-.4656l-1.06956-3.1961v-.151l-.33974-1.2583-1.1073-1.3464-.12583-.1887-.44041-.7046-.52848-.6292-.10067-.151-.30199-.5159c-.17608-.3044-.25098-.6569-.21391-1.0066v-.2517c.02412-.1938.08384-.3815.17616-.5537l.13841-.239c.16495-.3058.42579-.549.7424-.6921l.52849-.2265.20133-.0755 1.6232-.453 1.13247-.5033h.151l1.34638-.4404c.15888-.0496.32428-.0751.49078-.0755h.7046l.5537-.0755h.2265 2.202l1.9629-.1384c.1795-.0247.3616-.0247.5411 0l.453.1384h1.4974l1.0695-.151c.0877-.0126.1766-.0126.2643 0h1.2583l2.957-.1007h.2265l1.5351.1259c.2108.0098.417.0656.604.1636l.2013.1006c.1763.0973.334.2251.4656.3775.2733-.0004.5419.0715.7783.2086.2365.137.4325.3342.5681.5716l.4404.7423c.0761.1199.1314.2518.1635.3901l.4404 1.6484c.0059.0796.0059.1595 0 .2391l.1385.9563.6039.9311c.1114.1678.1884.356.2265.5537l.2014.9563.8053.7801c.0483.0399.0907.0865.1258.1384l1.6232 1.9756.5914.1887h.7298l1.7617-.5285.3523.0252 1.2583-.2265c.1336-.0186.2691-.0186.4026 0l1.6736.1258h.39v-.39c.0178-.3674.1597-.7179.4027-.9941l.1007-.1007.1006-.2894.1007-.8179c-.0119-.1087-.0119-.2184 0-.3271l.2265-.6795c.1045-.3122.3036-.5842.5697-.7781.266-.1939.5859-.3002.9151-.304h3.0325c.1463-.1728.3299-.3101.537-.4016.207-.0915.4321-.1349.6584-.1269h2.2146c.2135.0066.4236.0556.6181.1441.1944.0886.3693.215.5144.3718.1438.1575.2546.3421.3259.5431s.1017.4142.0893.6271v.2391h2.9318c.2466.0019.4891.0622.7078.1759.2188.1137.4074.2777.5505.4784l.2517.3523c.0662.1005.125.2057.1762.3146l.2894.7172c.0627.1524.101.3138.1132.4782l.2014 2.7179.1887.9311c.0055.0964.0055.1931 0 .2895v1.1953l.2265 1.3213c.0124.1213.0124.2435 0 .3649v.5033c-.0026.12-.0238.2388-.0629.3523l-.2139.7298v.7047l.0755.2894.7424 1.057c.0845.1292.1521.2688.2013.4152l.5536 1.7113.5537 1.3464c.1274.2751.1627.584.1007.8808v.2642h4.3411l.755-.2768c.2749-.112.5763-.1426.8682-.0881h.2642l.3398-.2139c.2558-.1628.5524-.25.8556-.2517h.1888c.362-.0004.7131.124.994.3524l.2769.2139c.2638.2125.4533.5033.541.8305l.0881.3774c.1057.3838.0606.7934-.1258 1.1451.0248.1626.0248.3281 0 .4907v.4027c-.0097.1296-.0394.257-.0881.3775l-.1007.302-.0629.8934c.0122.0876.0122.1766 0 .2642l-.1887.8053.1006 1.0192c.0126.0835.0126.1683 0 .2517v1.1199c-.0042.1466-.034.2914-.088.4278l-.1636.4908v.4026l.2642.0881c.3505.1225.6463.365.8352.6846.1889.3197.2586.6958.1968 1.0619-.0617.3661-.251.6985-.5343.9385-.2833.2399-.6423.3719-1.0136.3727h-9.7518v15.0996l.0881.0629c.1748.1391.3167.3153.4152.5159l.1258.2265.8053.4781c.1269.0742.2415.1676.3398.2769l.5285.5536.8179.6166.1887.1761.1762.1888.5914.2768c.2396.1102.4443.2844.5914.5033l.1636.2265.4655.2391c.2363.1258.4366.3098.5819.5346.1454.2249.2309.4831.2485.7502.0177.2671-.0332.5343-.1477.7763-.1144.242-.2888.4507-.5065.6065l-.2391.1762c-.1647.114-.3477.1991-.5411.2516l-1.0192.2517-7.0716 1.8245h-.1762l-.843.1007zm-1.2583-3.561 1.0947.1007c.2506.0222.4923.1042.7047.2391h.0755l5.0332-1.2583-.7298-.5537-.1888-.1636-.4656-.5033-1.0066-.5914c-.2546-.1471-.4603-.3659-.5914-.6291l-.1762-.3146-.4152-.3272c-.1893-.1504-.342-.3417-.4466-.5597-.1046-.2179-.1584-.4568-.1574-.6986v-17.3897c0-.4171.1657-.8172.4607-1.1122.295-.2949.695-.4607 1.1122-.4607h8.2922v-.7801c.0111-.154.0407-.3061.0881-.453l.1761-.4907v-.7802l-.1132-1.1576c-.0374-.1742-.0374-.3543 0-.5285l.2265-.9311v-.9815c.0068-.1411.0322-.2808.0755-.4153-.1152-.0087-.2291-.0298-.3398-.0629l-.2265-.0629-.541.2013c-.1731.0649-.3562.099-.5411.1007h-3.9007l-.2517.4782c-.1574.2875-.3989.5202-.6921.6669l-.239.1258c-.3164.1538-.675.1981-1.0193.1258l-.5913-.1132c-.3449-.0717-.6553-.258-.8809-.5285l-.151-.1762c-.2439-.068-.4682-.1931-.6543-.3649l-.0503-.1006c-.1374-.1265-.2523-.2755-.3397-.4405l-.1259-.2642c-.1042-.1909-.1671-.4016-.1844-.6184-.0174-.2168.0112-.4349.0838-.6399l.0629-.1887c.0747-.2358.2091-.4481.39-.6166l.9815-.9941-.3775-.8934c.005-.0418.005-.084 0-.1258l-.4907-1.5603-.8682-1.0318c-.1095-.1519-.1905-.3225-.2391-.5033l-.151-.755c-.0185-.142-.0185-.2858 0-.4278v-1.1325c-.0182-.1378-.0182-.2774 0-.4152l.2391-.8808-.2139-1.2583c-.0124-.0877-.0124-.1766 0-.2643v-1.1702l-.1636-.8682c-.0061-.0586-.0061-.1176 0-.1762l-.1888-2.4285h-3.6113c-.2131-.0021-.4236-.0478-.6183-.1344-.1948-.0866-.3698-.2121-.5142-.3689-.2652-.2883-.4132-.6653-.4152-1.057-.2115.1044-.4436.1603-.6795.1636h-2.7682v.302c-.0118.1199-.0372.2381-.0755.3523l-.2643.7424c-.0587.1637-.1437.3167-.2516.453v.0755c.006.1089.006.2182 0 .3271l-.3146 1.2583c-.0842.3405-.2798.6431-.5556.8597-.2759.2166-.6162.3347-.967.3357h-1.7616l-1.5854-.1258-.9438.1762-1.8874.5662c-.1505.0183-.3026.0183-.453 0h-1.2583c-.1624.0005-.3238-.025-.4782-.0755l-1.2583-.4152c-.2839-.0926-.5337-.2678-.7172-.5034l-1.8623-2.2523-1.0947-1.057c-.2252-.2225-.3786-.5074-.4404-.8179l-.2391-1.145-.5159-.7928c-.0467-.0727-.0887-.1484-.1258-.2265l-.2013-.453c-.061-.1494-.1032-.3058-.1259-.4655l-.1006-.9689-.2769-1.0318c-.2122-.0247-.417-.0934-.6011-.2017-.1842-.1084-.3437-.2539-.4684-.4275l-.1133-.151-.8304-.0629-2.9193.2139c-.0544.0063-.1092.0063-.1636 0h-1.1954l-1.0569.151h-.2391-1.8371c-.1379.0182-.2775.0182-.4153 0l-.3775-.1132-1.7993.1258h-2.2147l-.6039-.151h-.8305l-1.0444.3397-1.14506.4782-.20132.0755-.62916.1762.39008.6165 1.1828 1.4471c.09858.1174.17915.2489.23908.39l.27682.6544c.03501.0861.06443.1743.08809.2642l.20132.9563.95635 2.9696.4655.604c.1158.1498.2012.3208.2517.5033l.3649 1.2583c.0394.1479.0605.3.0629.453v1.3338c.0002.2245-.048.4463-.1414.6505-.0934.2041-.2297.3857-.3997.5323l-.5662.5033.5662 2.2146.3901 1.0193.3523.4278c.0873.1139.1631.2362.2265.3649l.2769.6543.8682.6669c.2829.2157.4829.5223.5662.8682l.4153 1.6484c.049.2149.0531.4376.012.6541-.0411.2166-.1266.4223-.2511.6042l-.1258.1636v.7424c.0248.1795.0248.3615 0 .541l-.1636.5411v1.2583c.0124.1129.0124.2269 0 .3398l-.302 1.3715c-.0222.1041-.0559.2054-.1007.302l-.4026.9311c-.0286.0655-.0623.1286-.1007.1888l-.4404.7172c-.0642.0976-.1357.1901-.2139.2768l-1.2583 1.2583c-.149.1539-.3292.2741-.5285.3524l-1.04439.4278v.2642c-.04669.325-.19157.6279-.41524.8683l-.55365.5788-.23908.2013-.50332.3523-.32716.6543v.3146c-.03093.2978-.14422.581-.32716.8179v.1133c.00075.2268-.05093.4507-.15099.6543l-.64173 1.3841-.13842.7298c-.02182.0986-.05127.1954-.08808.2894l-.16358.4027-.12583.8808-.0755.2894-.21391.604-.11324.9941c-.02512.1783-.07598.3521-.151.5159l-.35232.7172-.62916 2.0007c-.07552.2435-.20449.467-.37749.6543l-.3649.3523v.4153 2.5166c.01238.096.01238.1933 0 .2894.40445-.1052.83405-.0464 1.19538.1636l.11325.0629.56624-.4782c.13801-.1185.29554-.2121.46557-.2768l.85564-.302c.16438-.0648.33923-.0989.51591-.1007h2.16427.26425l.90594.1259c.2233.0339.4366.1156.6255.2393.1889.1238.349.2868.4693.4779l.1761.2642.7172.2517c.1808.0639.3474.1622.4908.2894l.6795.5788h.3145 22.0706c.3185.0027.6292.0989.8934.2769l1.4219.9814c.1347.0889.2538.1994.3523.3272l.3272.4152.994.3146h.365l1.749-.2517h.2768l2.5166.0881h.2265l3.0577.5788 1.3967.1259h.1762z"/><path d="m4.26945 9.8798c-.35221.00029-.694-.11955-.96889-.33975l-.78015-.60398c-.26562-.2055-.45585-.49305-.54107-.8179l-.13841-.5914c-.03107-.17479-.03107-.35369 0-.52848v-.61657l-.10067-.44041-.11324-.10066c-.17349-.15932-.31053-.35423-.40174-.5714s-.13445-.45148-.12675-.6869c.00775-.2481.07319-.49099.19114-.7094.11794-.21841.28514-.40634.48834-.5489l1.2583-.8934.20133-.12583.54107-.22649.37749-.76756c.15884-.312056.41505-.563845.72982-.717234l.98147-.465572c.199-.0844447.41297-.127964.62915-.127964s.43015.0435193.62915.127964l.84306.314576c.37367.144149.67621.428627.84306.79273l.46558.91856c.09341.20771.14171.43286.14171.66061 0 .22774-.0483.4529-.14171.6606-.08918.21188-.22479.40103-.39685.55348-.17205.15245-.37614.26431-.59721.32733h-.08808l-.54107.3775-.45299.41523-.22649.78015-.21392 1.1828v.94373c-.01663.29321-.11503.5759-.28404.81608-.16901.24017-.40189.42823-.67226.54288l-.88082.36491c-.20786.08195-.43143.11635-.65431.10067z"/></g></svg>

<svg width="69" height="73" viewBox="0 0 69 73" fill="none" xmlns="http://www.w3.org/2000/svg">
<path d="M52.3996 72.8197C52.0324 72.8154 51.6776 72.6868 51.393 72.4548L50.7135 72.3919H50.5373L49.4803 72.1654L48.0962 72.0396H47.9578L44.9505 71.4859L42.6352 71.3978L40.8736 71.6495C40.7817 71.6624 40.6886 71.6624 40.5967 71.6495H39.8795C39.7417 71.6499 39.6051 71.6243 39.4769 71.574L37.753 70.9952C37.4487 70.8958 37.1813 70.7073 36.9854 70.4541L36.5073 69.8501L35.6894 69.2839H14.2479L13.6314 69.4097C13.3969 69.4572 13.1547 69.4501 12.9234 69.389C12.6921 69.3279 12.478 69.2144 12.2976 69.0574L11.3287 68.1766L10.3849 67.8369C10.0516 67.7202 9.76771 67.494 9.57963 67.1951L9.42863 67.0693L7.55376 67.107L7.21402 67.2329L6.45904 67.9249C6.35018 68.0193 6.22701 68.0957 6.09413 68.1514L5.5279 68.4157C5.29949 68.5159 5.05079 68.5613 4.80171 68.5482C4.55262 68.5351 4.31006 68.4638 4.09344 68.3402L3.90469 68.4786C3.81979 68.5447 3.72676 68.5997 3.62786 68.6422L2.52056 69.1832C2.27954 69.2966 2.01401 69.3479 1.7481 69.3325C1.4822 69.3172 1.22435 69.2356 0.998016 69.0952C0.771213 68.9541 0.584049 68.7577 0.454164 68.5244C0.324279 68.291 0.255951 68.0284 0.255618 67.7614V67.3587L0.00395812 65.6222C-0.00131937 65.551 -0.00131937 65.4795 0.00395812 65.4083L0.00395812 64.4017C0.00444183 63.9937 0.162179 63.6016 0.444363 63.307V61.9606C0.444363 61.9606 0.444363 61.8348 0.444363 61.7593L0.582776 60.7275C0.625443 60.3913 0.775494 60.078 1.0106 59.8341L1.46359 59.3685L1.96691 57.6194C1.99501 57.5335 2.02864 57.4494 2.06757 57.3678L2.35698 56.7764L2.52056 55.8704C2.50877 55.7491 2.50877 55.6269 2.52056 55.5055L2.74705 54.8764L2.88547 53.9704C2.90562 53.8495 2.93939 53.7313 2.98613 53.6181L3.16229 53.1902L3.31329 52.4101C3.3377 52.2847 3.37567 52.1623 3.42654 52.0452L4.00535 50.7869V50.4471C4.00193 50.0688 4.13608 49.7021 4.38284 49.4153V49.3021C4.39952 49.1371 4.44198 48.9757 4.50868 48.8239L5.08749 47.5656C5.20128 47.3072 5.38415 47.0851 5.61598 46.9239L6.43388 46.3199L6.52196 45.6656C6.55488 45.3897 6.66089 45.1276 6.82901 44.9064C6.99713 44.6852 7.22127 44.5129 7.47826 44.4073L9.06372 43.753L10.0704 42.8596L10.3724 42.3814L10.6743 41.7019L10.8883 40.645V39.3867C10.8796 39.2519 10.8881 39.1166 10.9134 38.984L11.0518 38.4933L10.9763 37.4741C10.9552 37.1172 11.0526 36.7633 11.2532 36.4674L11.1525 36.0522L10.3975 35.4734C10.1838 35.3111 10.0184 35.0936 9.91937 34.8442L9.57963 33.9508L9.21472 33.5104C9.10776 33.3848 9.02652 33.2395 8.97564 33.0826L8.44716 31.7488C8.44716 31.7488 8.44716 31.623 8.44716 31.56L7.71734 28.9176C7.69823 28.7883 7.69823 28.6569 7.71734 28.5275V27.9865C7.71913 27.6464 7.82933 27.3158 8.03192 27.0427L8.47232 26.4513C8.53415 26.3561 8.61058 26.2712 8.69882 26.1997L8.81206 26.0738V25.5454L8.59815 24.8533L8.15775 24.2745C8.05358 24.1331 7.97286 23.9759 7.91867 23.8089L6.84911 20.6128V20.4618L6.50937 19.2035L5.40207 17.8571L5.27624 17.6684L4.83583 16.9638L4.30735 16.3346L4.20668 16.1836L3.90469 15.6677C3.72861 15.3633 3.65371 15.0108 3.69078 14.6611V14.4094C3.7149 14.2156 3.77462 14.0279 3.86694 13.8557L4.00535 13.6167C4.1703 13.3109 4.43114 13.0677 4.74775 12.9246L5.27624 12.6981L5.47757 12.6226L7.10077 12.1696L8.23324 11.6663H8.38424L9.73062 11.2259C9.8895 11.1763 10.0549 11.1508 10.2214 11.1504H10.926L11.4797 11.0749H11.7062H13.9082L15.8711 10.9365C16.0506 10.9118 16.2327 10.9118 16.4122 10.9365L16.8652 11.0749H18.3626L19.4321 10.9239C19.5198 10.9113 19.6087 10.9113 19.6964 10.9239H20.9547L23.9117 10.8232H24.1382L25.6733 10.9491C25.8841 10.9589 26.0903 11.0147 26.2773 11.1127L26.4786 11.2133C26.6549 11.3106 26.8126 11.4384 26.9442 11.5908C27.2175 11.5904 27.4861 11.6623 27.7225 11.7994C27.959 11.9364 28.155 12.1336 28.2906 12.371L28.731 13.1133C28.8071 13.2332 28.8624 13.3651 28.8945 13.5034L29.3349 15.1518C29.3408 15.2314 29.3408 15.3113 29.3349 15.3909L29.4734 16.3472L30.0773 17.2783C30.1887 17.4461 30.2657 17.6343 30.3038 17.832L30.5052 18.7883L31.3105 19.5684C31.3588 19.6083 31.4012 19.6549 31.4363 19.7068L33.0595 21.6824L33.6509 21.8711H34.3807L36.1424 21.3426L36.4947 21.3678L37.753 21.1413C37.8866 21.1227 38.0221 21.1227 38.1556 21.1413L39.8292 21.2671H40.2192V20.8771C40.237 20.5097 40.3789 20.1592 40.6219 19.883L40.7226 19.7823L40.8232 19.4929L40.9239 18.675C40.912 18.5663 40.912 18.4566 40.9239 18.3479L41.1504 17.6684C41.2549 17.3562 41.454 17.0842 41.7201 16.8903C41.9861 16.6964 42.306 16.5901 42.6352 16.5863H45.6677C45.814 16.4135 45.9976 16.2762 46.2047 16.1847C46.4117 16.0932 46.6368 16.0498 46.8631 16.0578H49.0777C49.2912 16.0644 49.5013 16.1134 49.6958 16.2019C49.8902 16.2905 50.0651 16.4169 50.2102 16.5737C50.354 16.7312 50.4648 16.9158 50.5361 17.1168C50.6074 17.3178 50.6378 17.531 50.6254 17.7439V17.983H53.5572C53.8038 17.9849 54.0463 18.0452 54.265 18.1589C54.4838 18.2726 54.6724 18.4366 54.8155 18.6373L55.0672 18.9896C55.1334 19.0901 55.1922 19.1953 55.2434 19.3042L55.5328 20.0214C55.5955 20.1738 55.6338 20.3352 55.646 20.4996L55.8474 23.2175L56.0361 24.1486C56.0416 24.245 56.0416 24.3417 56.0361 24.4381V25.6334L56.2626 26.9547C56.275 27.076 56.275 27.1982 56.2626 27.3196V27.8229C56.26 27.9429 56.2388 28.0617 56.1997 28.1752L55.9858 28.905V29.6097L56.0613 29.8991L56.8037 30.9561C56.8882 31.0853 56.9558 31.2249 57.005 31.3713L57.5586 33.0826L58.1123 34.429C58.2397 34.7041 58.275 35.013 58.213 35.3098V35.574H62.5541L63.3091 35.2972C63.584 35.1852 63.8854 35.1546 64.1773 35.2091H64.4415L64.7813 34.9952C65.0371 34.8324 65.3337 34.7452 65.6369 34.7435H65.8257C66.1877 34.7431 66.5388 34.8675 66.8197 35.0959L67.0966 35.3098C67.3604 35.5223 67.5499 35.8131 67.6376 36.1403L67.7257 36.5177C67.8314 36.9015 67.7863 37.3111 67.5999 37.6628C67.6247 37.8254 67.6247 37.9909 67.5999 38.1535V38.5562C67.5902 38.6858 67.5605 38.8132 67.5118 38.9337L67.4111 39.2357L67.3482 40.1291C67.3604 40.2167 67.3604 40.3057 67.3482 40.3933L67.1595 41.1986L67.2601 42.2178C67.2727 42.3013 67.2727 42.3861 67.2601 42.4695V43.5894C67.2559 43.736 67.2261 43.8808 67.1721 44.0172L67.0085 44.508V44.9106L67.2727 44.9987C67.6232 45.1212 67.919 45.3637 68.1079 45.6833C68.2968 46.003 68.3665 46.3791 68.3047 46.7452C68.243 47.1113 68.0537 47.4437 67.7704 47.6837C67.4871 47.9236 67.1281 48.0556 66.7568 48.0564H57.005V63.156L57.0931 63.2189C57.2679 63.358 57.4098 63.5342 57.5083 63.7348L57.6341 63.9613L58.4394 64.4394C58.5663 64.5136 58.6809 64.607 58.7792 64.7163L59.3077 65.2699L60.1256 65.8865L60.3143 66.0626L60.4905 66.2514L61.0819 66.5282C61.3215 66.6384 61.5262 66.8126 61.6733 67.0315L61.8369 67.258L62.3024 67.4971C62.5387 67.6229 62.739 67.8069 62.8843 68.0317C63.0297 68.2566 63.1152 68.5148 63.1328 68.7819C63.1505 69.049 63.0996 69.3162 62.9851 69.5582C62.8707 69.8002 62.6963 70.0089 62.4786 70.1647L62.2395 70.3409C62.0748 70.4549 61.8918 70.54 61.6984 70.5925L60.6792 70.8442L53.6076 72.6687H53.4314L52.5884 72.7694L52.3996 72.8197ZM51.1413 69.2587L52.236 69.3594C52.4866 69.3816 52.7283 69.4636 52.9407 69.5985H53.0162L58.0494 68.3402L57.3196 67.7865L57.1308 67.6229L56.6652 67.1196L55.6586 66.5282C55.404 66.3811 55.1983 66.1623 55.0672 65.8991L54.891 65.5845L54.4758 65.2573C54.2865 65.1069 54.1338 64.9156 54.0292 64.6976C53.9246 64.4797 53.8708 64.2408 53.8718 63.999V46.6093C53.8718 46.1922 54.0375 45.7921 54.3325 45.4971C54.6275 45.2022 55.0275 45.0364 55.4447 45.0364H63.7369V44.2563C63.748 44.1023 63.7776 43.9502 63.825 43.8033L64.0011 43.3126V42.5324L63.8879 41.3748C63.8505 41.2006 63.8505 41.0205 63.8879 40.8463L64.1144 39.9152V38.9337C64.1212 38.7926 64.1466 38.6529 64.1899 38.5184C64.0747 38.5097 63.9608 38.4886 63.8501 38.4555L63.6236 38.3926L63.0826 38.5939C62.9095 38.6588 62.7264 38.6929 62.5415 38.6946H58.6408L58.3891 39.1728C58.2317 39.4603 57.9902 39.693 57.697 39.8397L57.458 39.9655C57.1416 40.1193 56.783 40.1636 56.4387 40.0913L55.8474 39.9781C55.5025 39.9064 55.1921 39.7201 54.9665 39.4496L54.8155 39.2734C54.5716 39.2054 54.3473 39.0803 54.1612 38.9085L54.1109 38.8079C53.9735 38.6814 53.8586 38.5324 53.7712 38.3674L53.6453 38.1032C53.5411 37.9123 53.4782 37.7016 53.4609 37.4848C53.4435 37.268 53.4721 37.0499 53.5447 36.8449L53.6076 36.6562C53.6823 36.4204 53.8167 36.2081 53.9976 36.0396L54.9791 35.0455L54.6016 34.1521C54.6066 34.1103 54.6066 34.0681 54.6016 34.0263L54.1109 32.466L53.2427 31.4342C53.1332 31.2823 53.0522 31.1117 53.0036 30.9309L52.8526 30.1759C52.8341 30.0339 52.8341 29.8901 52.8526 29.7481V28.6156C52.8344 28.4778 52.8344 28.3382 52.8526 28.2004L53.0917 27.3196L52.8778 26.0613C52.8654 25.9736 52.8654 25.8847 52.8778 25.797V24.6268L52.7142 23.7586C52.7081 23.7 52.7081 23.641 52.7142 23.5824L52.5254 21.1539H48.9141C48.701 21.1518 48.4905 21.1061 48.2958 21.0195C48.101 20.9329 47.926 20.8074 47.7816 20.6506C47.5164 20.3623 47.3684 19.9853 47.3664 19.5936C47.1549 19.698 46.9228 19.7539 46.6869 19.7572H43.9187V20.0592C43.9069 20.1791 43.8815 20.2973 43.8432 20.4115L43.5789 21.1539C43.5202 21.3176 43.4352 21.4706 43.3273 21.6069V21.6824C43.3333 21.7913 43.3333 21.9006 43.3273 22.0095L43.0127 23.2678C42.9285 23.6083 42.7329 23.9109 42.4571 24.1275C42.1812 24.3441 41.8409 24.4622 41.4901 24.4632H39.7285L38.1431 24.3374L37.1993 24.5136L35.3119 25.0798C35.1614 25.0981 35.0093 25.0981 34.8589 25.0798H33.6006C33.4382 25.0803 33.2768 25.0548 33.1224 25.0043L31.8641 24.5891C31.5802 24.4965 31.3304 24.3213 31.1469 24.0857L29.2846 21.8334L28.1899 20.7764C27.9647 20.5539 27.8113 20.269 27.7495 19.9585L27.5104 18.8135L26.9945 18.0207C26.9478 17.948 26.9058 17.8723 26.8687 17.7942L26.6674 17.3412C26.6064 17.1918 26.5642 17.0354 26.5415 16.8757L26.4409 15.9068L26.164 14.875C25.9518 14.8503 25.747 14.7816 25.5629 14.6733C25.3787 14.5649 25.2192 14.4194 25.0945 14.2458L24.9812 14.0948L24.1508 14.0319L21.2315 14.2458C21.1771 14.2521 21.1223 14.2521 21.0679 14.2458H19.8725L18.8156 14.3968H18.5765H16.7394C16.6015 14.415 16.4619 14.415 16.3241 14.3968L15.9466 14.2836L14.1473 14.4094H11.9326L11.3287 14.2584H10.4982L9.4538 14.5981L8.30874 15.0763L8.10742 15.1518L7.47826 15.328L7.86834 15.9445L9.05114 17.3916C9.14972 17.509 9.23029 17.6405 9.29022 17.7816L9.56704 18.436C9.60205 18.5221 9.63147 18.6103 9.65513 18.7002L9.85645 19.6565L10.8128 22.6261L11.2783 23.2301C11.3941 23.3799 11.4795 23.5509 11.53 23.7334L11.8949 24.9917C11.9343 25.1396 11.9554 25.2917 11.9578 25.4447V26.7785C11.958 27.003 11.9098 27.2248 11.8164 27.429C11.723 27.6331 11.5867 27.8147 11.4167 27.9613L10.8505 28.4646L11.4167 30.6792L11.8068 31.6985L12.1591 32.1263C12.2464 32.2402 12.3222 32.3625 12.3856 32.4912L12.6625 33.1455L13.5307 33.8124C13.8136 34.0281 14.0136 34.3347 14.0969 34.6806L14.5122 36.329C14.5612 36.5439 14.5653 36.7666 14.5242 36.9831C14.4831 37.1997 14.3976 37.4054 14.2731 37.5873L14.1473 37.7509V38.4933C14.1721 38.6728 14.1721 38.8548 14.1473 39.0343L13.9837 39.5754V40.8337C13.9961 40.9466 13.9961 41.0606 13.9837 41.1735L13.6817 42.545C13.6595 42.6491 13.6258 42.7504 13.581 42.847L13.1784 43.7781C13.1498 43.8436 13.1161 43.9067 13.0777 43.9669L12.6373 44.6841C12.5731 44.7817 12.5016 44.8742 12.4234 44.9609L11.1651 46.2192C11.0161 46.3731 10.8359 46.4933 10.6366 46.5716L9.59221 46.9994V47.2636C9.54552 47.5886 9.40064 47.8915 9.17697 48.1319L8.62332 48.7107L8.38424 48.912L7.88092 49.2643L7.55376 49.9186V50.2332C7.52283 50.531 7.40954 50.8142 7.2266 51.0511V51.1644C7.22735 51.3912 7.17567 51.6151 7.07561 51.8187L6.43388 53.2028L6.29546 53.9326C6.27364 54.0312 6.24419 54.128 6.20738 54.222L6.0438 54.6247L5.91797 55.5055L5.84247 55.7949L5.62856 56.3989L5.51532 57.393C5.4902 57.5713 5.43934 57.7451 5.36432 57.9089L5.012 58.6261L4.38284 60.6268C4.30732 60.8703 4.17835 61.0938 4.00535 61.2811L3.64045 61.6334V62.0487V64.5653C3.65283 64.6613 3.65283 64.7586 3.64045 64.8547C4.0449 64.7495 4.4745 64.8083 4.83583 65.0183L4.94908 65.0812L5.51532 64.603C5.65333 64.4845 5.81086 64.3909 5.98089 64.3262L6.83653 64.0242C7.00091 63.9594 7.17576 63.9253 7.35244 63.9235H9.51671H9.78096L10.6869 64.0494C10.9102 64.0833 11.1235 64.165 11.3124 64.2887C11.5013 64.4125 11.6614 64.5755 11.7817 64.7666L11.9578 65.0308L12.675 65.2825C12.8558 65.3464 13.0224 65.4447 13.1658 65.5719L13.8453 66.1507H14.1598H36.2304C36.5489 66.1534 36.8596 66.2496 37.1238 66.4276L38.5457 67.409C38.6804 67.4979 38.7995 67.6084 38.898 67.7362L39.2252 68.1514L40.2192 68.466H40.5842L42.3332 68.2143H42.61L45.1266 68.3024H45.3531L48.4108 68.8812L49.8075 69.0071H49.9837L51.1413 69.2587Z" fill="white"/>
<path d="M4.26945 9.8798C3.91724 9.88009 3.57545 9.76025 3.30056 9.54005L2.52041 8.93607C2.25479 8.73057 2.06456 8.44302 1.97934 8.11817L1.84093 7.52677C1.80986 7.35198 1.80986 7.17308 1.84093 6.99829V6.38172L1.74026 5.94131L1.62702 5.84065C1.45353 5.68133 1.31649 5.48642 1.22528 5.26925C1.13407 5.05208 1.09083 4.81777 1.09853 4.58235C1.10628 4.33425 1.17172 4.09136 1.28967 3.87295C1.40761 3.65454 1.57481 3.46661 1.77801 3.32405L3.03631 2.43065L3.23764 2.30482L3.77871 2.07833L4.1562 1.31077C4.31504 0.998714 4.57125 0.746925 4.88602 0.593536L5.86749 0.127964C6.06649 0.0435193 6.28046 0 6.49664 0C6.71282 0 6.92679 0.0435193 7.12579 0.127964L7.96885 0.44254C8.34252 0.586689 8.64506 0.871167 8.81191 1.23527L9.27749 2.15383C9.3709 2.36154 9.4192 2.58669 9.4192 2.81444C9.4192 3.04218 9.3709 3.26734 9.27749 3.47504C9.18831 3.68692 9.0527 3.87607 8.88064 4.02852C8.70859 4.18097 8.5045 4.29283 8.28343 4.35585H8.19535L7.65428 4.73335L7.20129 5.14858L6.9748 5.92873L6.76088 7.11153V8.05526C6.74425 8.34847 6.64585 8.63116 6.47684 8.87134C6.30783 9.11151 6.07495 9.29957 5.80458 9.41422L4.92376 9.77913C4.7159 9.86108 4.49233 9.89548 4.26945 9.8798Z" fill="white"/>
</svg>
